X:2716
T:Cashmere Shawl, The
R:reel
H:Also played with three parts, see #428
D:John Williams
Z:id:hn-reel-679
M:C|
K:Ador
A2BG AGEG|AGAB cedc|AcBG AGEG|gedB cAdc|
A3B AGEG|AGAB c2dc|A2GB AGEG|gedB cBcd||
~e3d edBd|edeg d2Bd|~e3d edBd|eage d2Bd|
egdg edBd|edge d2Bd|eggd egaf|gedB cAdc||


